src/main/resources/react/src/img/MySettings/three.svg

<svg width="17" height="17" viewBox="0 0 17 17" fill="none" xmlns="http://www.w3.org/2000/svg">
<path d="M17 6.67692C17 6.42645 16.8104 6.26901 16.4275 6.20818L11.2999 5.46392L9.00274 0.815843C8.87392 0.536744 8.70575 0.397194 8.50179 0.397194C8.29783 0.397194 8.12966 0.536744 8.00084 0.815843L5.70364 5.46392L0.572511 6.20818C0.189644 6.26901 0 6.42645 0 6.67692C0 6.82005 0.0858766 6.98465 0.254052 7.16714L3.97537 10.7847L3.09514 15.8908C3.08082 15.9874 3.07367 16.0554 3.07367 16.0947C3.07367 16.2379 3.10945 16.3595 3.18101 16.4561C3.25258 16.5563 3.35992 16.6028 3.50305 16.6028C3.62471 16.6028 3.76068 16.5635 3.91097 16.4812L8.49821 14.0695L13.0855 16.4812C13.2286 16.5635 13.3646 16.6028 13.4934 16.6028C13.7725 16.6028 13.912 16.4311 13.912 16.0912C13.912 16.0017 13.9084 15.9337 13.9013 15.8872L13.0246 10.7847L16.7316 7.16714C16.9105 6.98823 17 6.82721 17 6.67692ZM11.6148 10.3231L12.3519 14.6241L8.50179 12.5917L4.63734 14.6241L5.3816 10.3231L2.25784 7.28879L6.56956 6.65545L8.50179 2.75165L10.434 6.65545L14.7422 7.28879L11.6148 10.3231Z" fill="#111111"/>
</svg>

<svg width="17" height="17" fill="none" xmlns="http://www.w3.org/2000/svg"><path d="M17 6.677c0-.25-.19-.408-.573-.469L11.3 5.464 9.003.816c-.13-.28-.297-.419-.501-.419-.204 0-.372.14-.501.419L5.704 5.464l-5.131.744C.19 6.27 0 6.426 0 6.677c0 .143.086.308.254.49l3.721 3.618-.88 5.106a1.624 1.624 0 00-.021.204c0 .143.035.265.107.361.072.1.179.147.322.147a.86.86 0 00.408-.122l4.587-2.412 4.588 2.412c.143.082.279.122.407.122.28 0 .419-.172.419-.512 0-.09-.004-.157-.01-.204l-.877-5.102 3.707-3.618c.178-.179.268-.34.268-.49zm-5.385 3.646l.737 4.301-3.85-2.032-3.865 2.032.745-4.3-3.124-3.035 4.312-.634 1.932-3.903 1.932 3.903 4.308.634-3.127 3.034z" fill="#111"/></svg>
